icons/gcp-dark.svg

<svg xmlns="http://www.w3.org/2000/svg" width="256" height="256" fill="none" viewBox="0 0 256 256"><rect width="256" height="256" fill="#282828" rx="60"/><path fill="#EA4335" d="M161.009 92.3895L178.394 75.0043L179.553 67.684C147.873 38.877 97.5124 42.1434 68.9538 74.4997C61.021 83.4864 55.1358 94.6903 51.9976 106.26L58.2241 105.382L92.9937 99.6489L95.678 96.9036C111.144 79.9176 137.295 77.6325 155.153 92.0848L161.009 92.3895Z"/><path fill="#4285F4" d="M203.16 105.749C199.164 91.033 190.96 77.8041 179.553 67.6846L155.153 92.0846C165.456 100.503 171.326 113.186 171.074 126.489V130.82C183.067 130.82 192.79 140.542 192.79 152.535C192.79 164.529 183.067 174.008 171.074 174.008H127.581L123.311 178.644V204.691L127.581 208.778H171.074C202.269 209.021 227.755 184.173 227.998 152.978C228.145 134.069 218.823 116.342 203.16 105.749Z"/><path fill="#34A853" d="M84.1488 208.778H127.581V174.008H84.1488C81.0543 174.007 78.0574 173.342 75.2433 172.056L69.0816 173.947L51.5746 191.332L50.0496 197.249C59.8675 204.662 71.8464 208.831 84.1488 208.778Z"/><path fill="#FBBC05" d="M84.1487 95.9886C52.9526 96.1746 27.8151 121.615 28.001 152.811C28.1049 170.231 36.2409 186.629 50.0495 197.249L75.2432 172.056C64.3128 167.118 59.4557 154.254 64.394 143.325C69.3315 132.395 82.1956 127.538 93.1245 132.475C97.9409 134.651 101.798 138.509 103.974 143.325L129.167 118.132C118.448 104.118 101.792 95.9254 84.1487 95.9886Z"/></svg>

<svg xmlns="http://www.w3.org/2000/svg" width="256" height="256" fill="none"><rect width="256" height="256" fill="#282828" rx="60"/><path fill="#EA4335" d="m161.009 92.39 17.385-17.386 1.159-7.32c-31.68-28.807-82.04-25.54-110.6 6.816-7.932 8.986-13.817 20.19-16.955 31.76l6.226-.878 34.77-5.733 2.684-2.745c15.466-16.986 41.617-19.272 59.475-4.82z"/><path fill="#4285F4" d="M203.16 105.749a78.3 78.3 0 0 0-23.607-38.064l-24.4 24.4a43.37 43.37 0 0 1 15.921 34.404v4.331c11.993 0 21.716 9.722 21.716 21.715s-9.723 21.473-21.716 21.473h-43.493l-4.27 4.636v26.047l4.27 4.087h43.493c31.195.243 56.681-24.605 56.924-55.8a56.48 56.48 0 0 0-24.838-47.229"/><path fill="#34A853" d="M84.149 208.778h43.432v-34.77H84.149a21.3 21.3 0 0 1-8.906-1.952l-6.161 1.891-17.507 17.385-1.525 5.917c9.818 7.413 21.796 11.582 34.099 11.529"/><path fill="#FBBC05" d="M84.149 95.989C52.953 96.175 27.815 121.615 28 152.81a56.49 56.49 0 0 0 22.049 44.438l25.193-25.193c-10.93-4.938-15.787-17.802-10.849-28.731s17.802-15.787 28.73-10.85a21.72 21.72 0 0 1 10.85 10.85l25.193-25.193a56.42 56.42 0 0 0-45.018-22.143"/></svg>
